X: 72
T:Off She Goes
R: jig
M: 6/8
L: 1/8
K: D
"D"F2A "G"G2B | "A7"ABc "D"d3 | "D"F2A "G"G2B | "D"AFD "A7"E3 |
"D"F2A "G"G2B | "A7"ABc "D"d2e | f2d "A7"g2f | edc "D"d3 :|
|: "D"faf def | "G"gbg "A7"efg | "D"faf def | "A7"ecA A3 |
"D"faf def | "G"gbg "A7"efg | "D"fed "A7"g2f | edc "D"d3 :|
